svg/briefcase_variant_off_outline.svg

<svg xmlns="http://www.w3.org/2000/svg" viewBox="0 0 24 24"><path d="M10 6.8 8.1 4.9 10 3h4l2 2v2h4c1.1 0 2 .9 2 2v5c0 .73-.41 1.37-1 1.72v2.08L17.2 14H20V9h-7.8l-2-2H14V5h-4zm12.11 14.66-1.27 1.27L19.1 21H5c-1.11 0-2-.89-2-2v-3.27c-.6-.35-1-.98-1-1.73V9c0-1.1.9-2 2-2h1.11l-4-4 1.28-1.27zM11 15h2v-.11L11.11 13H11zm-2-1v-3h.11l-2-2H4v5zm8.11 5L15 16.89V17H9v-1H5v3z"/></svg>

<?xml version="1.0" encoding="UTF-8"?><!DOCTYPE svg PUBLIC "-//W3C//DTD SVG 1.1//EN" "http://www.w3.org/Graphics/SVG/1.1/DTD/svg11.dtd"><svg xmlns="http://www.w3.org/2000/svg" xmlns:xlink="http://www.w3.org/1999/xlink" version="1.1" id="mdi-briefcase-variant-off-outline" width="24" height="24" viewBox="0 0 24 24"><path d="M10 6.8L8.1 4.9L10 3H14L16 5V7H20C21.1 7 22 7.9 22 9V14C22 14.73 21.59 15.37 21 15.72V17.8L17.2 14H20V9H12.2L10.2 7H14V5H10V6.8M22.11 21.46L20.84 22.73L19.1 21C19.07 21 19.03 21 19 21H5C3.89 21 3 20.11 3 19V15.73C2.4 15.38 2 14.75 2 14V9C2 7.9 2.9 7 4 7H5.11L1.11 3L2.39 1.73L22.11 21.46M11 15H13V14.89L11.11 13H11V15M9 14V11H9.11L7.11 9H4V14H9M17.11 19L15 16.89V17H9V16H5V19H17.11Z" /></svg>
